X:18
T:Le hareng saur
A:FLANDRE
O:FRANCE
M:6/8
L:1/8
Q:1/4=120
K:Cdor
G|G2AB2c|d2d cdc|B2AG2G|G2AB2c|d3cdc|B2AG2|
|:A|B2AG2A|B2AG2:|d|d2dc2d|B2AG2 z||
